X: 1
T: The Origin Of The World
R: mazurka
M: 3/4
L: 1/8
K: Gmin
de dc AB | G2-GGAB | ce ee dc | d2-dd dc |
de dc AB | G2-GG AB | EG BE GB | A2 AA BA |
GE CE GE | F2 FD B,D | GE B,E GE | F2 F2 GA |
B2 Bc-cd | d2-dc Bc | cc cB GF | G2 G4
